editor/icons/icon_expand_bottom_dock.svg

<svg height="16" viewBox="0 0 16 16" width="16" xmlns="http://www.w3.org/2000/svg"><g fill="#e0e0e0"><path d="m4.2130251 4.516057-3.5355339 3.5355339h2.5356849v4.9737171h1.9998394v-4.9737171h2.5356849l-3.5355339-3.5355339z"/><path d="m11.907306 4.6119359-3.5355342 3.5355339h2.5356852v4.9737172h1.999839v-4.9737172h2.535685l-3.535534-3.5355339z"/><path d="m1.288136 1.370074h14v1.830509h-14z"/></g></svg>

<?xml version="1.0" encoding="UTF-8" standalone="no"?>
<svg
   xmlns:dc="http://purl.org/dc/elements/1.1/"
   xmlns:cc="http://creativecommons.org/ns#"
   xmlns:rdf="http://www.w3.org/1999/02/22-rdf-syntax-ns#"
   xmlns:svg="http://www.w3.org/2000/svg"
   xmlns="http://www.w3.org/2000/svg"
   xmlns:sodipodi="http://sodipodi.sourceforge.net/DTD/sodipodi-0.dtd"
   xmlns:inkscape="http://www.inkscape.org/namespaces/inkscape"
   width="16"
   height="16"
   version="1.1"
   viewBox="0 0 16 16"
   id="svg6"
   sodipodi:docname="icon_expand_bottom_dock.svg"
   inkscape:version="0.92.3 (2405546, 2018-03-11)">
  <metadata
     id="metadata12">
    <rdf:RDF>
      <cc:Work
         rdf:about="">
        <dc:format>image/svg+xml</dc:format>
        <dc:type
           rdf:resource="http://purl.org/dc/dcmitype/StillImage" />
        <dc:title></dc:title>
      </cc:Work>
    </rdf:RDF>
  </metadata>
  <defs
     id="defs10" />
  <sodipodi:namedview
     pagecolor="#ffffff"
     bordercolor="#666666"
     borderopacity="1"
     objecttolerance="10"
     gridtolerance="10"
     guidetolerance="10"
     inkscape:pageopacity="0"
     inkscape:pageshadow="2"
     inkscape:window-width="1853"
     inkscape:window-height="1016"
     id="namedview8"
     showgrid="false"
     inkscape:zoom="20.85965"
     inkscape:cx="9.4509357"
     inkscape:cy="6.016355"
     inkscape:window-x="67"
     inkscape:window-y="27"
     inkscape:window-maximized="1"
     inkscape:current-layer="svg6" />
  <path
     style="fill:#e0e0e0"
     d="M 4.2130251,4.516057 0.6774912,8.0515909 H 3.2131761 V 13.025308 H 5.2130155 V 8.0515909 H 7.7487004 L 4.2131665,4.516057 Z"
     id="path829"
     inkscape:connector-curvature="0"
     sodipodi:nodetypes="ccccccccc" />
  <path
     inkscape:connector-curvature="0"
     id="path831"
     d="M 11.907306,4.6119359 8.3717718,8.1474698 h 2.5356852 v 4.9737172 h 1.999839 V 8.1474698 h 2.535685 L 11.907447,4.6119359 Z"
     style="fill:#e0e0e0"
     sodipodi:nodetypes="ccccccccc" />
  <rect
     style="fill:#e0e0e0;fill-opacity:1"
     id="rect855"
     width="14"
     height="1.8305085"
     x="1.2881356"
     y="1.3700738" />
</svg>
